X:1
T:Title
%%score 1 { 2 | 3 }
L:1/8
Q:1/4=95
M:4/4
K:G
V:1 treble nm="Grand Piano, Soprano"
V:2 bass nm="Choir Pad, Ashford, C. H. Gabriel, 1910"
V:3 bass 
V:1
 [B,D]2 [DB][DB] [DB]3 [DB] | [Ec][DB][DB][B,^G] [CA]4 | [CD]2 [CA][CA] [CA]3 [CA] | %3
w: By~Charles~Hutchinson~Gabriel,~1910 * * * *|||
 [DB][CA][CA][B,G] [B,D]4 | [B,D]2 [DB][DB] [DB]3 [DB] | [Dc][=Fd][Ed][Ec] [CE]3 [CE] | %6
w: |||
 [DF][EG][DB][DB] [DB]3 [DG] | [DF][DA] [DG]6 | [Gd]2 [Fd][Ec] [CE]3 [CF] | %9
w: |||
 [DB][CA][B,A][B,G] [B,D]4 | [Gd]2 [Fd][FA] [FA]3 A | [GB][GA][GB][G^c] [Fd]4 | %12
w: |||
 [B,D]2 [DB][DB] [DB]3 [DB] | [Dc][=Fd][Ed][Ec] [CE]3 [CE] | [DF][EG][DB][DB] [DB]3 [DG] | %15
w: |||
 [DF][DA] [DG]6- | [DG]2 z2 z4 |] %17
w: ||
V:2
 G,2 G,G, G,3 G, | G,G,G,=F, ^F,4 | F,2 F,F, F,3 F, | F,F,G,G, G,4 | G,2 G,G, G,3 G, | %5
 A,G,G,G, G,3 G, | G,G,G,G, G,3 B, | A,C B,6 | B,2 A,A, A,3 A, | F,F,G,G, G,4 | %10
 B,2 A,[K:treble]D D3 D | ^CCC[K:bass]A, A,4 | G,2 G,G, G,3 G, | A,G,G,G, G,3 G, | %14
 G,G,G,G, G,3 B, | A,C B,6- | B,2 z2 z4 |] %17
V:3
 G,,2 G,,G,, G,,3 G,, | G,,G,,D,D, D,4 | D,2 D,D, D,3 D, | D,D,G,,G,, G,,4 | G,,2 z2 z4 | %5
 G,B,,C,C, C,3 C, | C,C,D,D, D,3 D, | D,D, [G,,G,]6 | G,2 D,D, D,3 D, | D,D,G,,G,, G,,4 | %10
 G,2 D,D, D,3 F, | E,E,[A,,A,]A,, D,4 | G,,2 z2 z4 | G,B,,C,C, C,3 C, | C,C,D,D, D,3 D, | %15
 D,D, [G,,G,]6- | [G,,G,]2 z2 z4 |] %17

